X: 7463
T: Cnoc Na gClarac
R: slide
M: 12/8
K: Amixolydian
|:a2 g|e2 e efe d2 d e2 d|c2 A B2 A a3 a2 g|
e2 e efe d2 d e2 d|1 c2 A B2 c A3:|2 c2 A B2 c A3 A2 d||
|:e2 a a2 g e2 d c2 d|e2 a a2 g efe d2 f|
e2 a aba g2 g gfe|1 d2 d def g2 a f2 g:|2 d2 d def g3||

